X: 29944
T: O'xira
R: reel
M: 4/4
K: Gmajor
E~éBBB cBAB|F~éAAA AGFD|E~BBB cBAG|1 FDGF E3 D:|2 FDGF E3 F||
|:G~BBB A~ddd|edef edBA|~G3 E ~F3 D|~E3 F EDB, D|
~G3 E ~A3 F|~B3 z ~e3 f|gfed BdBA|1 G2 F2 E2 EF:|2 G2 F2 E4||

